X: 56
T:Cafouillee
M:2/4
L:1/8
R:Polka
Z:Steve Mansfield
K:C
Gc cB/A/ | Ge ed/e/ | fd dc/d/ | ec cB/A/ | Gc cB/A/ |
Ge ed/e/ | fd de/d/ | c/B/c/d/ c2 :: ef g2 | de f2 |
cd ef/e/ | dc d2 | ef g2 | de f2 | cd ef/e/ | d/c/B/d/ c2 :|
<end>
<start>
